sim-alert-outline.svg

<svg fill="currentColor" viewBox="0 0 24 24"><path d="M13 13h-2V7h2m0 10h-2v-2h2m5-11v16H6V8.8L10.8 4zm0-2h-8L4 8v12c0 1.1.9 2 2 2h12c1.1 0 2-.9 2-2V4c0-1.1-.9-2-2-2"/></svg>

<svg  viewBox="0 0 24 24" fill="currentColor"><path  d="M13 13H11V7H13M13 17H11V15H13M18 4V20H6V8.8L10.8 4H18M18 2H10L4 8V20C4 21.1 4.9 22 6 22H18C19.1 22 20 21.1 20 20V4C20 2.9 19.1 2 18 2Z"/></svg>
